dist/img/sprites/footer_logo.svg

<svg width="267" height="59" viewBox="0 0 267 59" fill="none" xmlns="http://www.w3.org/2000/svg">
<g clip-path="url(#clip0_105_1111)">
<path d="M36.4063 25.0065L41.254 22.1098L41.3512 22.0518C41.4484 21.9951 41.5445 21.9311 41.6417 21.8816L41.6595 21.8684L42.5382 21.3445L41.0536 20.4719L40.5306 20.1725C37.6063 18.4345 34.6631 16.7278 31.7282 15.0103C27.5398 17.4435 23.3574 19.8889 19.1583 22.298C19.0457 26.234 19.2164 30.17 19.1061 34.1072C19.2129 39.972 19.0729 45.8404 19.1619 51.7027C21.3652 52.9724 23.5495 54.276 25.7409 55.5651C25.78 45.8379 25.7314 36.1072 25.7646 26.3777C27.7615 25.2697 29.666 23.9902 31.6938 22.9486C33.1974 23.54 34.5161 24.5322 35.9462 25.2817L36.4063 25.0065Z" fill="#A78B73"/>
<path d="M44.3751 25.4131C42.1517 26.754 39.9021 28.0479 37.6763 29.3805C37.6763 30.7081 37.6822 32.0213 37.6763 33.3406C35.7434 34.486 33.8117 35.6339 31.9013 36.8203C31.9072 39.4154 31.9013 42.0104 31.9072 44.6054C36.0766 42.1914 40.2081 39.6978 44.3798 37.2959C44.3996 33.3345 44.398 29.3736 44.3751 25.4131Z" fill="#A78B73"/>
<path d="M62.3403 18.0191L61.8316 17.7174C58.369 15.581 54.8352 13.5702 51.3358 11.4869C51.3263 10.0562 51.3216 8.62634 51.3216 7.19727C51.3216 6.77 51.3216 6.34272 51.3275 5.91424C51.756 5.4226 52.1817 4.93014 52.6046 4.43689C49.5049 4.43689 46.4051 4.36447 43.3089 4.47672C43.6967 4.89917 44.1034 5.30471 44.5137 5.70905C44.5137 5.93355 44.5137 6.15805 44.5137 6.38255V7.37349C40.1747 5.06573 35.9994 2.41036 31.6996 0C21.7188 5.90217 11.7242 11.7822 1.71576 17.6401C1.71022 17.6426 1.70504 17.6459 1.70035 17.6498L1.03865 18.0372L0.00341797 18.6407H2.00036C3.504 18.683 5.00882 18.6238 6.51246 18.6407C6.5006 27.1428 6.52669 35.6399 6.5006 44.1384C8.69439 45.4757 10.9238 46.7454 13.1413 48.043C13.1555 38.2784 13.1555 28.5151 13.1413 18.753C19.3325 15.1091 25.5439 11.499 31.7221 7.83094C37.8734 11.4366 44.0224 15.0491 50.1689 18.6685C50.161 25.9346 50.161 33.1994 50.1689 40.4631C44.1085 44.0535 38.0497 47.6406 31.9925 51.2246C31.9925 53.816 31.983 56.4074 31.9984 59C40.3253 54.1149 48.653 49.2339 56.9816 44.3568C56.9863 35.7623 56.9863 27.1665 56.9816 18.5695H63.2582L62.3403 18.0191Z" fill="white"/>
<path d="M90.5171 19.7209C90.5164 21.5681 89.7952 23.3394 88.512 24.6456C87.2287 25.9517 85.4884 26.6858 83.6736 26.6864H75.5566L77.7848 21.5036H83.6736C83.9074 21.5098 84.14 21.4683 84.3577 21.3815C84.5755 21.2947 84.774 21.1645 84.9415 20.9984C85.1089 20.8323 85.2421 20.6337 85.333 20.4144C85.4238 20.1951 85.4707 19.9595 85.4707 19.7215C85.4707 19.4835 85.4238 19.2479 85.333 19.0286C85.2421 18.8093 85.1089 18.6107 84.9415 18.4446C84.774 18.2785 84.5755 18.1483 84.3577 18.0615C84.14 17.9747 83.9074 17.9332 83.6736 17.9394H74.9198V35.4407H69.8207V12.7554H83.6736C85.4884 12.756 87.2287 13.4901 88.512 14.7962C89.7952 16.1024 90.5164 17.8737 90.5171 19.7209Z" fill="white"/>
<path d="M110.889 35.4347H91.7906V12.7554H110.889V17.9454H96.8826V21.5097H107.706V26.6925H96.8826V30.2567H110.889V35.4347Z" fill="white"/>
<path d="M117.254 35.4347H112.155V12.7554H117.254V35.4347ZM132.85 35.4347H127.758V26.6864H117.891L120.119 21.5036H127.759V12.7554H132.851L132.85 35.4347Z" fill="white"/>
<path d="M156.406 24.095C156.406 27.2268 155.318 29.8998 153.143 32.1143C150.969 34.3287 148.343 35.4355 145.266 35.4347C142.189 35.4347 139.563 34.3279 137.387 32.1143C135.212 29.9006 134.124 27.2276 134.125 24.095C134.125 20.9641 135.212 18.2914 137.387 16.077C139.562 13.8626 142.188 12.7554 145.266 12.7554C148.342 12.7554 150.968 13.8626 153.143 16.077C155.319 18.2914 156.406 20.9641 156.406 24.095ZM151.314 24.095C151.314 23.0821 151.069 22.0848 150.6 21.1914C150.131 20.298 149.453 19.5362 148.625 18.9736C147.798 18.4109 146.847 18.0648 145.857 17.9658C144.866 17.8669 143.867 18.0182 142.948 18.4064C142.029 18.7946 141.218 19.4077 140.587 20.1912C139.957 20.9748 139.526 21.9046 139.333 22.8982C139.14 23.8919 139.191 24.9186 139.481 25.8875C139.771 26.8563 140.292 27.7373 140.997 28.4523C141.842 29.3144 142.92 29.9016 144.093 30.1395C145.267 30.3774 146.483 30.2552 147.588 29.7884C148.693 29.3217 149.637 28.5314 150.301 27.5178C150.964 26.5042 151.316 25.3129 151.314 24.095Z" fill="white"/>
<path d="M178.37 28.474C178.368 30.3212 177.647 32.0923 176.363 33.3984C175.08 34.7044 173.34 35.4385 171.525 35.4395H157.679V12.7554H171.525C173.34 12.7563 175.08 13.4905 176.363 14.7965C177.647 16.1026 178.368 17.8737 178.37 19.7209C178.37 21.1041 177.754 22.5622 176.523 24.095C177.753 25.6295 178.369 27.0892 178.37 28.474ZM173.27 28.474C173.272 28.2395 173.228 28.007 173.14 27.7901C173.053 27.5731 172.924 27.376 172.761 27.2102C172.598 27.0444 172.404 26.9131 172.191 26.824C171.978 26.7349 171.749 26.6898 171.519 26.6913H163.403L165.636 21.5036H171.525C171.759 21.5098 171.991 21.4683 172.209 21.3815C172.427 21.2947 172.625 21.1645 172.793 20.9984C172.96 20.8323 173.093 20.6337 173.184 20.4144C173.275 20.1951 173.322 19.9595 173.322 19.7215C173.322 19.4835 173.275 19.2479 173.184 19.0286C173.093 18.8093 172.96 18.6107 172.793 18.4446C172.625 18.2785 172.427 18.1483 172.209 18.0615C171.991 17.9747 171.759 17.9332 171.525 17.9394H162.772V30.2507H171.525C171.755 30.2523 171.983 30.2074 172.196 30.1188C172.409 30.0301 172.602 29.8994 172.765 29.7342C172.928 29.569 173.057 29.3725 173.145 29.1562C173.232 28.9399 173.277 28.708 173.276 28.474H173.27Z" fill="white"/>
<path d="M191.403 12.7554H187.278L186.782 13.9298C185.37 17.2611 183.922 20.5767 182.473 23.891C181.023 27.2054 179.567 30.5186 178.085 33.8161C177.86 34.3255 177.631 34.8328 177.4 35.3381V35.4347H183.115L189.337 21.1234L193.308 30.2507H185.995L188.223 35.4407H201.267L191.403 12.7554Z" fill="white"/>
<path d="M202.516 35.4347V12.7554H207.615V30.2567H216.527V12.7554H221.607V30.2567H223.072V38.5511H217.979V35.4347H202.516Z" fill="white"/>
<path d="M224.348 12.7554H229.44V25.6182L239.944 12.7554H245.037V35.4347H239.944V22.5718L229.44 35.4347H224.348V12.7554Z" fill="white"/>
<path d="M254.3 26.6864H253.151C251.336 26.6858 249.596 25.9517 248.312 24.6456C247.029 23.3394 246.308 21.5681 246.307 19.7209C246.308 17.8737 247.029 16.1024 248.312 14.7962C249.596 13.4901 251.336 12.756 253.151 12.7554H266.996V35.4347H261.903V17.9334H253.151C252.917 17.9272 252.684 17.9687 252.467 18.0554C252.249 18.1422 252.05 18.2725 251.883 18.4386C251.715 18.6047 251.582 18.8033 251.491 19.0226C251.4 19.2419 251.354 19.4775 251.354 19.7155C251.354 19.9535 251.4 20.1891 251.491 20.4084C251.582 20.6277 251.715 20.8262 251.883 20.9923C252.05 21.1584 252.249 21.2887 252.467 21.3755C252.684 21.4623 252.917 21.5038 253.151 21.4976H259.038L261.266 26.6804L253.374 35.4286H246.307L254.3 26.6864Z" fill="white"/>
<path d="M73.7802 49.7317C72.6426 49.7317 71.6995 49.3491 70.9508 48.5839C70.5834 48.2128 70.2943 47.7693 70.1012 47.2806C69.9081 46.7918 69.815 46.2681 69.8278 45.7414C69.8278 44.6149 70.2021 43.6678 70.9508 42.9002C71.6995 42.1325 72.6426 41.7495 73.7802 41.7511C74.4441 41.7457 75.098 41.9162 75.6775 42.246C76.2404 42.5596 76.7089 43.0232 77.0329 43.5869L75.9527 44.2242C75.7501 43.843 75.4448 43.5286 75.0728 43.3178C74.6789 43.092 74.2334 42.9762 73.7814 42.9822C72.975 42.9822 72.3216 43.2425 71.8212 43.7632C71.3208 44.2838 71.0706 44.9432 71.0706 45.7414C71.0706 46.5404 71.3208 47.2003 71.8212 47.7209C72.3216 48.2415 72.975 48.5014 73.7814 48.5006C74.2349 48.5067 74.682 48.3909 75.0775 48.165C75.4511 47.9579 75.7557 47.6424 75.9527 47.2586L77.0329 47.885C76.7143 48.4519 76.2487 48.9187 75.687 49.2344C75.1051 49.5672 74.4476 49.7387 73.7802 49.7317Z" fill="#A78B73"/>
<path d="M85.7263 41.8936V43.1005H83.5918V49.5869H82.3562V43.103H80.2217V41.896L85.7263 41.8936Z" fill="#A78B73"/>
<path d="M92.131 41.8934C92.4616 41.8846 92.7904 41.9442 93.0976 42.0687C93.4048 42.1932 93.684 42.3799 93.9181 42.6176C94.379 43.0995 94.6369 43.7454 94.6369 44.4179C94.6369 45.0903 94.379 45.7363 93.9181 46.2181C93.6851 46.4578 93.4063 46.6463 93.0989 46.7721C92.7916 46.8979 92.4622 46.9583 92.131 46.9495H90.5894V49.588H89.3443V41.8934H92.131ZM92.131 45.763C92.2999 45.7684 92.468 45.7374 92.6243 45.6721C92.7806 45.6068 92.9217 45.5086 93.0382 45.3841C93.2674 45.1179 93.3938 44.776 93.3938 44.4221C93.3938 44.0681 93.2674 43.7263 93.0382 43.4601C92.9215 43.3357 92.7805 43.2377 92.6242 43.1724C92.4679 43.1071 92.2999 43.076 92.131 43.0811H90.5894V45.763H92.131Z" fill="#A78B73"/>
<path d="M104.74 48.5714C104.096 49.2372 103.244 49.6547 102.331 49.7524C101.418 49.8502 100.5 49.6222 99.7335 49.1074C98.9671 48.5926 98.4002 47.823 98.1296 46.9299C97.8589 46.0369 97.9012 45.0759 98.2494 44.2112C98.5976 43.3464 99.23 42.6316 100.038 42.1887C100.847 41.7458 101.782 41.6025 102.682 41.7831C103.583 41.9637 104.395 42.4571 104.978 43.179C105.561 43.9009 105.88 44.8064 105.88 45.741C105.89 46.267 105.794 46.7895 105.598 47.2764C105.402 47.7632 105.11 48.2039 104.74 48.5714ZM100.052 47.7144C100.563 48.2184 101.247 48.5003 101.959 48.5003C102.67 48.5003 103.354 48.2184 103.865 47.7144C104.36 47.1812 104.637 46.475 104.637 45.741C104.637 45.007 104.36 44.3008 103.865 43.7676C103.354 43.2636 102.67 42.9817 101.959 42.9817C101.247 42.9817 100.563 43.2636 100.052 43.7676C99.5567 44.3008 99.2805 45.007 99.2805 45.741C99.2805 46.475 99.5567 47.1812 100.052 47.7144Z" fill="#A78B73"/>
<path d="M114.249 49.5893V44.3679L110.692 49.5893H109.719V41.8936H110.962V47.1162L114.525 41.8936H115.498V49.5893H114.249Z" fill="#A78B73"/>
<path d="M124.618 41.8936V43.1005H122.491V49.5869H121.248V43.103H119.113V41.896L124.618 41.8936Z" fill="#A78B73"/>
<path d="M129.478 48.3799H132.826V49.5869H128.236V41.8936H132.772V43.1005H129.478V45.1017H132.503V46.3003H129.478V48.3799Z" fill="#A78B73"/>
<path d="M136.045 49.5893V48.4246C136.519 48.4897 136.875 48.3723 137.112 48.0721C137.349 47.772 137.468 47.1967 137.468 46.3461V41.8936H142.534V49.5893H141.291V43.103H138.711V46.3244C138.723 46.9 138.652 47.4743 138.499 48.0287C138.398 48.4247 138.19 48.7841 137.899 49.0667C137.663 49.2856 137.378 49.4441 137.069 49.529C136.734 49.6096 136.387 49.63 136.045 49.5893Z" fill="#A78B73"/>
<path d="M149.524 44.5272C149.855 44.5184 150.185 44.5788 150.492 44.7046C150.799 44.8304 151.078 45.0189 151.311 45.2586C151.772 45.7405 152.03 46.3864 152.03 47.0589C152.03 47.7313 151.772 48.3773 151.311 48.8591C151.077 49.097 150.798 49.2839 150.491 49.4084C150.184 49.5329 149.855 49.5924 149.524 49.5833H146.737V41.8936H147.979V44.5272H149.524ZM149.524 48.3968C149.693 48.4021 149.861 48.3711 150.017 48.3058C150.174 48.2405 150.315 48.1424 150.431 48.0178C150.661 47.7517 150.787 47.4098 150.787 47.0558C150.787 46.7019 150.661 46.36 150.431 46.0939C150.315 45.9695 150.174 45.8715 150.017 45.8062C149.861 45.7409 149.693 45.7098 149.524 45.7149H147.983V48.4016L149.524 48.3968Z" fill="#A78B73"/>
<path d="M160.292 41.8936H161.534V49.5893H160.292V46.258H157.052V49.5893H155.809V41.8936H157.052V45.0486H160.292V41.8936Z" fill="#A78B73"/>
<path d="M170.671 49.5893L170.142 48.0395H166.923L166.394 49.5893H165.043L167.786 41.8936H169.277L172.004 49.5893H170.671ZM167.334 46.8519H169.732L168.533 43.3782L167.334 46.8519Z" fill="#A78B73"/>
<path d="M180.738 41.8936V49.5893H179.495V46.7855H178.296L176.471 49.5893H175.067L176.989 46.6757C176.499 46.5267 176.068 46.2202 175.763 45.8018C175.449 45.3923 175.28 44.8872 175.283 44.3679C175.281 44.0425 175.343 43.72 175.464 43.419C175.585 43.1181 175.764 42.8446 175.99 42.6145C176.216 42.3843 176.485 42.2021 176.78 42.0784C177.076 41.9546 177.393 41.8918 177.713 41.8936H180.738ZM177.713 45.6534H179.491V43.0789H177.713C177.554 43.0764 177.397 43.1086 177.252 43.1731C177.107 43.2377 176.977 43.3331 176.871 43.453C176.648 43.7029 176.525 44.0281 176.525 44.3655C176.525 44.7029 176.648 45.0282 176.871 45.278C176.977 45.3979 177.107 45.4935 177.252 45.5582C177.397 45.623 177.554 45.6554 177.713 45.6534Z" fill="#A78B73"/>
<path d="M196.052 49.5893H194.57L191.589 45.9285V49.5893H190.349V41.8936H191.592V45.3455L194.465 41.8936H195.944L192.888 45.6425L196.052 49.5893Z" fill="#A78B73"/>
<path d="M205.886 48.5714C205.241 49.2372 204.39 49.6547 203.477 49.7524C202.564 49.8502 201.645 49.6222 200.879 49.1074C200.113 48.5926 199.546 47.823 199.275 46.9299C199.005 46.0369 199.047 45.0759 199.395 44.2112C199.743 43.3464 200.376 42.6316 201.184 42.1887C201.993 41.7458 202.927 41.6025 203.828 41.7831C204.729 41.9637 205.54 42.4571 206.123 43.179C206.707 43.9009 207.025 44.8064 207.025 45.741C207.036 46.267 206.94 46.7896 206.744 47.2764C206.548 47.7632 206.256 48.204 205.886 48.5714ZM201.198 47.7144C201.709 48.2184 202.393 48.5003 203.104 48.5003C203.816 48.5003 204.5 48.2184 205.011 47.7144C205.507 47.1816 205.784 46.4753 205.784 45.741C205.784 45.0067 205.507 44.3004 205.011 43.7676C204.5 43.2636 203.816 42.9817 203.104 42.9817C202.393 42.9817 201.709 43.2636 201.198 43.7676C200.702 44.3008 200.426 45.007 200.426 45.741C200.426 46.475 200.702 47.1812 201.198 47.7144Z" fill="#A78B73"/>
<path d="M218.096 41.8936V49.5893H216.853V44.1035L214.553 47.9732H214.402L212.102 44.0927V49.5893H210.859V41.8936H212.199L214.477 45.7414L216.767 41.8936H218.096Z" fill="#A78B73"/>
<path d="M227.87 41.8936V49.5893H226.628V43.103H223.545V49.5893H222.304V41.8936H227.87Z" fill="#A78B73"/>
<path d="M237.008 49.5893L236.478 48.0395H233.259L232.731 49.5893H231.38L234.124 41.8936H235.615L238.342 49.5893H237.008ZM233.67 46.8519H236.068L234.869 43.3782L233.67 46.8519Z" fill="#A78B73"/>
<path d="M246.339 41.8936H247.577V49.5893H246.336V46.258H243.095V49.5893H241.853V41.8936H243.095V45.0486H246.336L246.339 41.8936Z" fill="#A78B73"/>
<path d="M256.33 49.5893V44.3679L252.765 49.5893H251.793V41.8936H253.032V47.1162L256.59 41.8936H257.562V49.5893H256.33Z" fill="#A78B73"/>
<path d="M267 41.8931V49.5889H265.758V46.785H264.56L262.733 49.5889H261.333L263.256 46.6752C262.766 46.5263 262.335 46.2197 262.03 45.8013C261.718 45.3911 261.551 44.886 261.556 44.3674C261.554 44.042 261.615 43.7194 261.737 43.4184C261.858 43.1173 262.037 42.8438 262.263 42.6136C262.489 42.3834 262.758 42.2012 263.053 42.0776C263.349 41.9539 263.666 41.8912 263.986 41.8931H267ZM263.976 45.6529H265.755V43.0784H263.976C263.818 43.0759 263.66 43.1081 263.515 43.1726C263.369 43.2371 263.239 43.3326 263.133 43.4525C262.911 43.7027 262.788 44.0279 262.788 44.365C262.788 44.7022 262.911 45.0273 263.133 45.2775C263.239 45.3975 263.369 45.493 263.515 45.5578C263.66 45.6225 263.817 45.6549 263.976 45.6529Z" fill="#A78B73"/>
</g>
<defs>
<clipPath id="clip0_105_1111">
<rect width="267" height="59" fill="white"/>
</clipPath>
</defs>
</svg>

<svg width="267" height="59" viewBox="0 0 267 59" fill="none" xmlns="http://www.w3.org/2000/svg"><g clip-path="url(#clip0_105_1111)"><path d="M36.406 25.006l4.848-2.896.097-.058c.097-.057.194-.12.29-.17l.019-.014.878-.523-1.484-.873-.523-.3c-2.925-1.738-5.868-3.444-8.803-5.162-4.188 2.434-8.37 4.879-12.57 7.288-.112 3.936.058 7.872-.052 11.81.107 5.864-.033 11.732.056 17.595 2.203 1.27 4.387 2.573 6.579 3.862.039-9.727-.01-19.458.024-29.187 1.997-1.108 3.901-2.388 5.929-3.43 1.503.592 2.822 1.584 4.252 2.334l.46-.276z" fill="#A78B73"/><path d="M44.375 25.413c-2.223 1.341-4.473 2.635-6.699 3.968 0 1.327.006 2.64 0 3.96a324.276 324.276 0 00-5.775 3.48c.006 2.594 0 5.19.006 7.784 4.17-2.414 8.301-4.907 12.473-7.31.02-3.96.018-7.921-.005-11.882z" fill="#A78B73"/><path d="M62.34 18.02l-.508-.303c-3.463-2.136-6.997-4.147-10.496-6.23-.01-1.43-.014-2.86-.014-4.29 0-.427 0-.854.005-1.283.429-.491.855-.984 1.278-1.477-3.1 0-6.2-.073-9.296.04.388.422.794.828 1.205 1.232v1.664C40.174 5.066 35.999 2.41 31.7 0a7732.158 7732.158 0 01-30 17.65l-.661.387-1.036.604H2c1.504.042 3.009-.017 4.512 0-.011 8.502.015 16.999-.011 25.497 2.193 1.338 4.423 2.607 6.64 3.905.014-9.765.014-19.528 0-29.29 6.191-3.644 12.403-7.254 18.581-10.922 6.151 3.606 12.3 7.218 18.447 10.838-.008 7.266-.008 14.53 0 21.794-6.06 3.59-12.12 7.178-18.176 10.762 0 2.591-.01 5.182.005 7.775a36014.81 36014.81 0 0124.984-14.643c.004-8.595.004-17.19 0-25.787h6.276l-.918-.55zm28.177 1.7a7.032 7.032 0 01-2.005 4.926 6.786 6.786 0 01-4.838 2.04h-8.117l2.228-5.182h5.889a1.723 1.723 0 001.267-.506 1.786 1.786 0 00.53-1.277 1.812 1.812 0 00-.53-1.276 1.749 1.749 0 00-1.267-.506H74.92v17.502h-5.1V12.755h13.854a6.788 6.788 0 014.838 2.041 7.032 7.032 0 012.005 4.925zm20.372 15.715H91.791v-22.68h19.098v5.19H96.883v3.565h10.823v5.182H96.883v3.565h14.006v5.178zm6.365 0h-5.099v-22.68h5.099v22.68zm15.596 0h-5.092v-8.749h-9.867l2.228-5.182h7.64v-8.749h5.092l-.001 22.68zm23.556-11.34c0 3.132-1.088 5.805-3.263 8.02-2.174 2.214-4.8 3.32-7.877 3.32s-5.703-1.107-7.879-3.32c-2.175-2.214-3.263-4.887-3.262-8.02 0-3.13 1.087-5.804 3.262-8.018 2.175-2.214 4.801-3.322 7.879-3.322 3.076 0 5.702 1.108 7.877 3.322 2.176 2.214 3.263 4.887 3.263 8.018zm-5.092 0c0-1.013-.245-2.01-.714-2.904a6.114 6.114 0 00-1.975-2.217 5.952 5.952 0 00-5.677-.567 6.063 6.063 0 00-2.361 1.784 6.21 6.21 0 00-1.254 2.707 6.265 6.265 0 00.148 2.99 6.17 6.17 0 001.516 2.564 6.01 6.01 0 003.096 1.688 5.941 5.941 0 003.495-.352 6.071 6.071 0 002.713-2.27 6.236 6.236 0 001.013-3.423zm27.056 4.379a7.035 7.035 0 01-2.007 4.924 6.786 6.786 0 01-4.838 2.041h-13.846V12.756h13.846a6.79 6.79 0 014.838 2.041 7.035 7.035 0 012.007 4.925c0 1.383-.616 2.841-1.847 4.374 1.23 1.535 1.846 2.994 1.847 4.379zm-5.1 0a1.779 1.779 0 00-1.079-1.65 1.714 1.714 0 00-.672-.133h-8.116l2.233-5.187h5.889a1.723 1.723 0 001.268-.506 1.793 1.793 0 00.529-1.277 1.808 1.808 0 00-.529-1.276 1.723 1.723 0 00-1.268-.505h-8.753v12.31h8.753a1.716 1.716 0 001.24-.516 1.775 1.775 0 00.511-1.26h-.006zm18.133-15.719h-4.125l-.496 1.175a964.536 964.536 0 01-4.309 9.961 1087.35 1087.35 0 01-5.073 11.447v.097h5.715l6.222-14.312 3.971 9.128h-7.313l2.228 5.19h13.044l-9.864-22.686zm11.113 22.68v-22.68h5.099v17.502h8.912V12.755h5.08v17.502h1.465v8.294h-5.093v-3.116h-15.463zm21.832-22.68h5.092v12.863l10.504-12.863h5.093v22.68h-5.093V22.572L229.44 35.435h-5.092v-22.68zM254.3 26.686h-1.149a6.788 6.788 0 01-4.839-2.04 7.034 7.034 0 01-2.005-4.925 7.034 7.034 0 012.005-4.925 6.788 6.788 0 014.839-2.04h13.845v22.679h-5.093V17.933h-8.752a1.722 1.722 0 00-1.268.506 1.78 1.78 0 00-.529 1.276 1.807 1.807 0 00.529 1.277 1.743 1.743 0 001.268.506h5.887l2.228 5.182-7.892 8.749h-7.067l7.993-8.743z" fill="#fff"/><path d="M73.78 49.732c-1.137 0-2.08-.383-2.83-1.148a3.877 3.877 0 01-.849-1.303 3.93 3.93 0 01-.273-1.54c0-1.126.374-2.073 1.123-2.84.749-.769 1.692-1.152 2.83-1.15a3.772 3.772 0 011.896.495 3.569 3.569 0 011.356 1.34l-1.08.638a2.26 2.26 0 00-.88-.906 2.528 2.528 0 00-1.292-.336c-.806 0-1.46.26-1.96.781-.5.52-.75 1.18-.75 1.978 0 .8.25 1.46.75 1.98s1.154.78 1.96.78a2.54 2.54 0 001.296-.336c.374-.207.679-.523.876-.906l1.08.626a3.53 3.53 0 01-1.346 1.35 3.76 3.76 0 01-1.907.497zm11.946-7.838V43.1h-2.134v6.487h-1.236v-6.484h-2.134v-1.207l5.504-.002zm6.405-.001a2.436 2.436 0 011.787.724c.461.482.719 1.128.719 1.8 0 .673-.258 1.32-.719 1.801-.233.24-.512.428-.82.554a2.387 2.387 0 01-.967.178h-1.542v2.638h-1.245v-7.695h2.787zm0 3.87a1.181 1.181 0 00.907-.379 1.475 1.475 0 000-1.924 1.204 1.204 0 00-.907-.379h-1.542v2.682h1.542zm12.609 2.808a3.909 3.909 0 01-5.006.536 4.027 4.027 0 01-1.604-2.177 4.1 4.1 0 01.12-2.719c.348-.865.98-1.58 1.788-2.022a3.903 3.903 0 012.644-.406c.901.18 1.713.674 2.296 1.396a4.08 4.08 0 01.902 2.562 3.914 3.914 0 01-.282 1.535 3.853 3.853 0 01-.858 1.295zm-4.688-.857a2.715 2.715 0 001.907.786c.711 0 1.395-.282 1.906-.786.495-.533.772-1.239.772-1.973s-.277-1.44-.772-1.973a2.715 2.715 0 00-1.906-.786c-.712 0-1.396.282-1.907.786a2.9 2.9 0 00-.772 1.973 2.9 2.9 0 00.772 1.973zm14.197 1.876v-5.222l-3.557 5.221h-.973v-7.695h1.243v5.222l3.563-5.222h.973v7.695h-1.249zm10.369-7.696V43.1h-2.127v6.487h-1.243v-6.484h-2.135v-1.207l5.505-.002zm4.86 6.486h3.348v1.207h-4.59v-7.693h4.536V43.1h-3.294v2.002h3.025V46.3h-3.025v2.08zm6.567 1.21v-1.165c.474.065.83-.053 1.067-.353s.356-.875.356-1.726v-4.452h5.066v7.695h-1.243v-6.486h-2.58v3.221a5.941 5.941 0 01-.212 1.705 2.207 2.207 0 01-.6 1.038 2 2 0 01-.83.462 2.91 2.91 0 01-1.024.06zm13.479-5.063a2.41 2.41 0 011.787.732c.461.481.719 1.127.719 1.8 0 .672-.258 1.318-.719 1.8a2.397 2.397 0 01-1.787.724h-2.787v-7.69h1.242v2.634h1.545zm0 3.87a1.18 1.18 0 00.907-.38 1.47 1.47 0 00.356-.961 1.47 1.47 0 00-.356-.962 1.191 1.191 0 00-.907-.38h-1.541v2.688l1.541-.005zm10.768-6.503h1.242v7.695h-1.242v-3.331h-3.24v3.331h-1.243v-7.695h1.243v3.155h3.24v-3.155zm10.379 7.696l-.529-1.55h-3.219l-.529 1.55h-1.351l2.743-7.696h1.491l2.727 7.695h-1.333zm-3.337-2.738h2.398l-1.199-3.474-1.199 3.474zm13.404-4.958v7.695h-1.243v-2.803h-1.199l-1.825 2.803h-1.404l1.922-2.913a2.374 2.374 0 01-1.226-.874 2.335 2.335 0 01-.48-1.434c-.002-.326.06-.648.181-.949.121-.3.3-.574.526-.804a2.382 2.382 0 011.723-.72h3.025zm-3.025 3.76h1.778v-2.575h-1.778a1.091 1.091 0 00-.842.374 1.37 1.37 0 00-.346.912c0 .338.123.663.346.913a1.116 1.116 0 00.842.375zm18.339 3.936h-1.482l-2.981-3.662v3.661h-1.24v-7.695h1.243v3.452l2.873-3.452h1.479l-3.056 3.748 3.164 3.947zm9.834-1.019a3.91 3.91 0 01-5.007.536 4.03 4.03 0 01-1.604-2.177 4.106 4.106 0 01.12-2.719 4.011 4.011 0 011.789-2.022 3.903 3.903 0 012.644-.406 3.95 3.95 0 012.295 1.396c.584.722.902 1.627.902 2.562a3.894 3.894 0 01-1.139 2.83zm-4.688-.857a2.715 2.715 0 001.906.786c.712 0 1.396-.282 1.907-.786.496-.532.773-1.239.773-1.973s-.277-1.44-.773-1.973a2.715 2.715 0 00-1.907-.786c-.711 0-1.395.282-1.906.786a2.898 2.898 0 00-.772 1.973c0 .734.276 1.44.772 1.973zm16.898-5.82v7.695h-1.243v-5.486l-2.3 3.87h-.151l-2.3-3.88v5.496h-1.243v-7.695h1.34l2.278 3.847 2.29-3.847h1.329zm9.774 0v7.695h-1.242v-6.486h-3.083v6.486h-1.241v-7.695h5.566zm9.138 7.696l-.53-1.55h-3.219l-.528 1.55h-1.351l2.744-7.696h1.491l2.727 7.695h-1.334zm-3.338-2.738h2.398l-1.199-3.474-1.199 3.474zm12.669-4.958h1.238v7.695h-1.241v-3.331h-3.241v3.331h-1.242v-7.695h1.242v3.155h3.241l.003-3.155zm9.991 7.696v-5.222l-3.565 5.221h-.972v-7.695h1.239v5.222l3.558-5.222h.972v7.695h-1.232zM267 41.893v7.696h-1.242v-2.804h-1.198l-1.827 2.804h-1.4l1.923-2.914a2.373 2.373 0 01-1.226-.874 2.332 2.332 0 01-.474-1.434 2.486 2.486 0 01.707-1.753 2.382 2.382 0 011.723-.72H267zm-3.024 3.76h1.779v-2.575h-1.779a1.094 1.094 0 00-.843.374 1.375 1.375 0 000 1.826 1.11 1.11 0 00.843.375z" fill="#A78B73"/></g><defs><clipPath id="clip0_105_1111"><path fill="#fff" d="M0 0h267v59H0z"/></clipPath></defs></svg>
